T: Tripping Up The Stairs
M: 4/4
L: 1/8
K: Dmaj
~d3f ecde|fB~B2 dBAB|~d3f edcd|eA~A2 eAce:|
|:a2^ga faea|fB~B2 fBdf|affe afec|A2 (3cBA eAce:|
%Variation on A-part
d2fd caec|B2 (3dcB fBBc|defa edcB|A2 (3cBA eAce||
